X: 05055
T: MAGGI'S SON
C: Bob McQuillen 10 Aug 80
B: Bob's Note Book 5 #55
%R: reel
Z: 2021 John Chambers <jc:trillian.mit.edu>
M: C
L: 1/8
K: Bm
FA \
| Bcde dBde | fdef d2B2 | bafd efde | f2eg fedc |\
| Bcde dBde | fedf a2f2 | b2ba fede | f2B2 B2 :|
|: Bc \
| d2B2 dcBc | d2B2 BdcB | AFDF EFAB | A2F2 F2Bc |\
| d2B2 d2dB | AFAB F2BA | F2DF EDFE | D2B,2 B,2 :|
%%begintext align
%% Hank Peirce is
%% Maggi's son. (You all know Maggi!) and he's
%% one of my favorites. He's a super bones
%% player in the tradition of Percy Danforth and
%% Rod Fuller - He's got a bodhran now, and he's
%% working hard with it, too.
%%endtext

%%sep 1 1 500

%%sep 1 1 500

